!!!OTL@@DE: Der Rattenf&auml;nger
!!!ONB: Volksweise
!!!ODT: 1803
!!!OMD: Allegretto
!!!LYR: Goethe, Wolfgang von
!!!LDT: 1803
!!!OCL: Erk, Ludwig
!!!GCO: Deutscher Liederschatz, Band 1
**kern	**kern	**kern
*staff3	*staff2	*staff1
*Ipiano	*Ipiano	*Ivox
*clefF4	*clefG2	*clefG2
*k[f#c#g#]	*k[f#c#g#]	*k[f#c#g#]
*A:	*A:	*A:
*M3/4	*M3/4	*M3/4
*MM112	*MM112	*MM112
8r	8r	8e/
=1	=1	=1
8AA/	8r	8.e/
8r	8c#/ 8e/ 8a/	.
.	.	16a/
8A\	8r	8a/
8r	8c#/ 8e/ 8a/	8a/
8AA/	8r	8a/
8r	8c#/ 8e/ 8a/	8a/
=2	=2	=2
8EE/	8r	8g#/L
8r	8B/ 8e/ 8g#/	8b/J
8E\	8r	4e/
8r	8B/ 8e/ 8g#/	.
8EE/	8r	8r
8r	8B/ 8e/ 8g#/	8e/
=3	=3	=3
8EE/	8r	8.e/
8r	8B/ 8e/ 8g#/	.
.	.	16e/
8E\	8r	8e/
8r	8B/ 8e/ 8g#/	8e/
8EE/	8r	8f#/
8r	8B/ 8e/ 8g#/	8g#/
=4	=4	=4
8AA/	8r	4b\
8r	8d/ 8e/ 8g#/	.
8A\	8r	4a/
8r	8c#/ 8e/ 8a/	.
8AA/	8r	8r
8r	8c#/ 8e/ 8a/	8e/
=5	=5	=5
8AA/	8r	8.a/
8r	8c#/ 8e/ 8a/	.
.	.	16a/
8A\	8r	8a/
8r	8c#/ 8e/ 8a/	8a/
8AA/	8r	8.cc#\
8r	8c#/ 8e/ 8a/	.
.	.	16a/
=6	=6	=6
8DD/	8r	2f#/
8r	8A/ 8d/ 8f#/	.
8D\	8r	.
8r	8A/ 8d/ 8f#/	.
8DD/	8r	8r
8r	8A/ 8d/ 8f#/	8f#/
=7	=7	=7
8EE/	8r	8.f#/
8r	8A/ 8c#/ 8e/	.
.	.	16e/
8E\	8r	8e/
8r	8A/ 8c#/ 8e/	8e/
8E\	8r	8f#/
8r	8d/ 8e/ 8g#/	8g#/
=8	=8	=8
8AA/	8r	4a/
8r	8c#/ 8e/ 8a/	.
8A\	8r	4r
8r	8c#/ 8e/ 8a/	.
8AA/	8r	8r
8r	8c#/ 8e/ 8a/	8a/
=9	=9	=9
4EE/	16r	8g#/
.	(16d/LL	.
.	16e/	8e/
.	16g#/JJ)	.
4E\ 4B\	16r	8b\
.	(16d/LL	.
.	16e/	8g#/
.	16g#/JJ)	.
4E\ 4B\	16r	8dd\
.	(16d/LL	.
.	16e/	8g#/
.	16g#/JJ)	.
=10	=10	=10
4AA/	16r	8b/L
.	(16c#/LL	.
.	16e/	8a/J
.	16a/JJ)	.
4A\	16r	4a/
.	(16c#/LL	.
.	16e/	.
.	16a/JJ)	.
4A\	16r	8r
.	(16c#/LL	.
.	16e/	8a/
.	16a/JJ)	.
=11	=11	=11
4EE/	16r	8g#/
.	(16d/LL	.
.	16e/	8b\
.	16g#/JJ)	.
4E\ 4B\	16r	8dd\
.	(16d/LL	.
.	16e/	8b\
.	16g#/JJ)	.
4E\ 4B\	16r	8g#/
.	(16d/LL	.
.	16e/	8e/
.	16g#/JJ)	.
=12	=12	=12
4AA/	16r	8b/L
.	(16c#/LL	.
.	16e/	8a/J
.	16a/JJ)	.
4A\	16r	4a/
.	(16c#/LL	.
.	16e/	.
.	16a/JJ)	.
4A\	16r	8r
.	(16c#/LL	.
.	16e/	8e/
.	16a/JJ)	.
=13	=13	=13
8AA/	8r	8.a/
8r	8c#/ 8e/ 8a/	.
.	.	16a/
8A\	8r	8a/
8r	8c#/ 8e/ 8a/	8a/
8AA/	8r	8cc#\
8r	8c#/ 8e/ 8a/	8a/
=14	=14	=14
8DD/	8r	2f#/
8r	8A/ 8d/ 8f#/	.
8D\	8r	.
8r	8A/ 8d/ 8f#/	.
8DD/	8r	8r
8r	8A/ 8d/ 8f#/	8f#/
=15	=15	=15
8EE/	8r	8.f#/
8r	8A/ 8c#/ 8e/	.
.	.	16e/
8E\	8r	8e/
8r	8A/ 8c#/ 8e/	8e/
8EE/	8r	8f#/
8r	8B/ 8d/ 8g#/	8g#/
=16	=16	=16
8FF#/	8r	4a/
8r	8A/ 8c#/ 8a/	.
4FF#/ 4F#/	8r	4r
.	8A/ 8d/ 8a/	.
4FF#/ 4F#/	8r	(8cc#/L
.	8A/ 8d#/	8a/J)
=17	=17	=17
8EE/ 8E/	8r	8.e/
8r	8A/ 8c#/ 8e/	.
.	.	16e/
8EE/ 8E/	8r	8e/
8r	8A/ 8c#/ 8e/	8e/
8EE/ 8E/	8r	8f#/
8r	8B/ 8d/ 8g#/	8g#/
=18	=18	=18
4FF#/ 4F#/	8r	2a/
.	8A/ 8c#/ 8a/	.
4EE/ 4E/	8r	.
.	8c#/ 8a/	.
4DD#/ 4D#/	8r	8cc#/L
.	8cn/ 8f#/ 8a/	8a/J
=19	=19	=19
8EE/ 8E/	8c#/ 8e/ 8a/ 8cc#/	8.ee\
8r	8r	.
.	.	16e/
4r	4r	8e/
.	.	8e/
8r	8r	8f#/
8E\	8d/ 8e/ 8g#/	8g#/
=20	=20	=20
8AA\ 8A\	8c#/ 8e/ 8a/	2a/
8r	8r	.
4AAA\ 4AA\	4C#/ 4E/ 4A/	.
8r	8r	8r
==	==	==
*-	*-	*-
!!!ENC: Craig Stuart Sapp
!!!END: 2004/05/26/
!!!EFL: 057/651
